SVGs/app-store.svg

<?xml version="1.0" encoding="UTF-8"?>
<svg width="398px" height="398px" viewBox="0 0 398 398" version="1.1" xmlns="http://www.w3.org/2000/svg" xmlns:xlink="http://www.w3.org/1999/xlink">
    <!-- Generator: Sketch 51.2 (57519) - http://www.bohemiancoding.com/sketch -->
    <title>app-store</title>
    <desc>Created with Sketch.</desc>
    <defs></defs>
    <g id="Page-1" stroke="none" stroke-width="1" fill="none" fill-rule="evenodd">
        <g id="app-store" fill-rule="nonzero" stroke="#57C003" stroke-width="2">
            <rect id="rect826" x="1.82044547" y="1.82043651" width="394.383258" height="394.383258" rx="14.833459"></rect>
            <path d="M176.101131,74.7311841 C173.234008,74.8084775 170.341794,75.5843393 167.673878,77.1247031 C159.136535,82.0536212 156.230046,92.8947819 161.159016,101.432072 L179.042349,132.405646 L122.121311,230.993964 L74.4142667,230.993964 C68.351589,231.553755 63.1875174,235.124593 60.4313753,240.210967 C59.0648572,242.732723 58.29197,245.62414 58.2920286,248.70481 C58.29197,258.562822 66.2265651,266.500327 76.0845771,266.500385 L237.258503,266.500385 C241.9376,256.675984 239.649897,245.01364 230.344216,237.012602 C227.212575,234.320039 223.815301,230.993964 219.738285,230.993964 L163.119839,230.993964 L237.92421,101.432072 C242.853228,92.8947819 239.946662,82.0536798 231.409349,77.1247031 C228.741438,75.5843393 225.849236,74.8085946 222.982102,74.7311841 C217.199086,74.5748406 211.525826,77.2618988 208.009726,82.2324501 L199.540103,96.8992241 L191.073501,82.2324501 C187.55743,77.2618988 181.884141,74.5747821 176.101131,74.7311841 Z M225.971734,142.678758 C222.665474,143.829493 219.495361,146.792641 216.912052,151.641631 C210.461332,163.749408 210.04927,182.924378 215.707733,195.917223 L284.92621,315.802098 C290.187255,323.230111 300.276872,325.546161 308.322814,320.900827 C316.860111,315.971851 319.763623,305.130807 314.834655,296.5934 L297.45967,266.500385 L323.618969,266.500385 C332.682326,265.65818 339.732124,258.07722 339.732124,248.786553 C339.732124,238.928483 331.794617,230.994022 321.93654,230.993964 L276.961915,230.993964 L225.971734,142.678758 Z M106.262333,273.027403 C103.205098,273.02752 100.148548,273.412113 97.1935687,274.174215 L84.2485754,296.5934 C79.3195577,305.130749 82.2231018,315.971851 90.7604156,320.900827 C98.8063248,325.546161 108.895959,323.230111 114.157017,315.802098 L132.146259,284.643957 C131.105252,283.372656 129.942408,282.151538 128.618003,281.012865 C122.425156,275.688287 114.344201,273.026876 106.262333,273.027403 Z" id="path869"></path>
        </g>
    </g>
</svg>

<svg width="398" height="398" viewBox="0 0 398 398" xmlns="http://www.w3.org/2000/svg">
  <title>
    app-store
  </title>
  <g fill-rule="nonzero" stroke="#57C003" stroke-width="2" fill="none">
    <rect x="1.82" y="1.82" width="394.383" height="394.383" rx="14.833"/>
    <path d="M176.101 74.731c-2.867.077-5.76.853-8.427 2.394a17.756 17.756 0 0 0-6.515 24.307l17.883 30.974-56.92 98.588H74.413a17.745 17.745 0 0 0-13.983 9.217 17.765 17.765 0 0 0-2.139 8.494A17.755 17.755 0 0 0 76.085 266.5h161.174c4.679-9.824 2.39-21.486-6.915-29.487-3.131-2.693-6.529-6.019-10.606-6.019H163.12l74.804-129.562a17.756 17.756 0 0 0-6.515-24.307 17.77 17.77 0 0 0-8.427-2.394 17.743 17.743 0 0 0-14.972 7.501L199.54 96.9l-8.466-14.667a17.743 17.743 0 0 0-14.973-7.5zm49.87 67.948c-3.306 1.15-6.476 4.114-9.059 8.963-6.45 12.107-6.863 31.282-1.204 44.275l69.218 119.885a17.75 17.75 0 0 0 23.397 5.099 17.755 17.755 0 0 0 6.512-24.308L297.46 266.5h26.159a17.75 17.75 0 0 0 16.113-17.713 17.755 17.755 0 0 0-17.795-17.793h-44.975l-50.99-88.315zM106.263 273.027c-3.057 0-6.113.385-9.068 1.147l-12.945 22.42A17.755 17.755 0 0 0 90.76 320.9a17.75 17.75 0 0 0 23.397-5.099l17.99-31.158a28.947 28.947 0 0 0-3.529-3.631c-6.193-5.325-14.274-7.986-22.356-7.986z"/>
  </g>
</svg>
